src/packages/siteLogos/tripletex/tripletex-mc-header-logo.svg

<?xml version="1.0" encoding="UTF-8" standalone="no" ?>
<!DOCTYPE svg PUBLIC "-//W3C//DTD SVG 1.1//EN" "http://www.w3.org/Graphics/SVG/1.1/DTD/svg11.dtd">
<svg xmlns="http://www.w3.org/2000/svg" xmlns:xlink="http://www.w3.org/1999/xlink" version="1.1" width="500" height="45" viewBox="0 0 500 45" xml:space="preserve">
<desc>Created with Fabric.js 5.2.4</desc>
<defs>
</defs>
<rect x="0" y="0" width="100%" height="100%" fill="transparent"></rect>
<g transform="matrix(1 0 0 1 250 22.5)" id="7436c8b6-13ee-4e86-a1cf-e556f78c565b"  >
<rect style="stroke: none; stroke-width: 1; stroke-dasharray: none; stroke-linecap: butt; stroke-dashoffset: 0; stroke-linejoin: miter; stroke-miterlimit: 4; fill: rgb(255,255,255); fill-rule: nonzero; opacity: 1; visibility: hidden;" vector-effect="non-scaling-stroke"  x="-250" y="-22.5" rx="0" ry="0" width="500" height="45" />
</g>
<g transform="matrix(0 0 0 0 0 0)" id="5b988fdb-faa0-45b0-813c-c697da8e26ab"  >
</g>
<g transform="matrix(1 0 0 1 40 49.5)"  >
<rect style="stroke: none; stroke-width: 1; stroke-dasharray: none; stroke-linecap: butt; stroke-dashoffset: 0; stroke-linejoin: miter; stroke-miterlimit: 4; fill: rgb(255,255,255); fill-opacity: 0; fill-rule: nonzero; opacity: 1;" vector-effect="non-scaling-stroke"  x="-50" y="-50" rx="0" ry="0" width="100" height="100" />
</g>
<g transform="matrix(1 0 0 1 240 22)"  >
<rect style="stroke: none; stroke-width: 1; stroke-dasharray: none; stroke-linecap: butt; stroke-dashoffset: 0; stroke-linejoin: miter; stroke-miterlimit: 4; fill: rgb(255,255,255); fill-rule: nonzero; opacity: 1; visibility: hidden;" vector-effect="non-scaling-stroke"  x="-250" y="-22.5" rx="0" ry="0" width="500" height="45" />
</g>
<g transform="matrix(0.84 0 0 0.84 59.04 30.58)"  >
<path style="stroke: none; stroke-width: 1; stroke-dasharray: none; stroke-linecap: butt; stroke-dashoffset: 0; stroke-linejoin: miter; stroke-miterlimit: 4; fill: rgb(15,19,26); fill-rule: nonzero; opacity: 1;" vector-effect="non-scaling-stroke"  transform=" translate(-61.5, -34.96)" d="M 76.167 34.194 C 75.673 31.230000000000004 74.191 28.859 71.623 27.378000000000004 C 70.635 26.785000000000004 69.45 26.489000000000004 68.26400000000001 26.291000000000004 C 67.07900000000001 26.192000000000004 65.89300000000001 26.291000000000004 64.80600000000001 26.587000000000003 C 59.86700000000001 27.970000000000002 57.39700000000001 33.206 58.780000000000015 37.75 C 59.076000000000015 38.837 59.66900000000002 39.923 60.36100000000002 40.911 C 61.05300000000002 41.800000000000004 62.04000000000002 42.59 63.02800000000002 43.183 C 64.01600000000002 43.775999999999996 65.20100000000002 44.072 66.38700000000001 44.27 C 67.57200000000002 44.369 68.75800000000001 44.27 69.84500000000001 43.974000000000004 C 71.52400000000002 43.480000000000004 73.00600000000001 42.591 74.09300000000002 41.208000000000006 C 75.27800000000002 39.726000000000006 75.97000000000001 37.94800000000001 76.26600000000002 36.17 L 72.21600000000002 37.355000000000004 C 71.82100000000003 38.93600000000001 70.83300000000003 40.121 68.95600000000002 40.714000000000006 C 66.68400000000001 41.406000000000006 64.01700000000002 40.61500000000001 63.02900000000002 38.047000000000004 L 76.16800000000002 34.194 Z M 62.238 34.984 C 61.942 33.403 62.93 30.835 65.794 29.946 C 68.65899999999999 29.057000000000002 70.931 30.736 71.524 32.317 L 62.238 34.984 Z M 105.507 34.194 C 105.013 31.230000000000004 103.531 28.859 100.96300000000001 27.378000000000004 C 99.97500000000001 26.785000000000004 98.79 26.489000000000004 97.60400000000001 26.291000000000004 C 96.41900000000001 26.192000000000004 95.23300000000002 26.291000000000004 94.14600000000002 26.587000000000003 C 89.20700000000002 27.970000000000002 86.73700000000001 33.206 88.12000000000002 37.75 C 88.41600000000003 38.935 89.00900000000001 39.923 89.70100000000002 40.911 C 90.39300000000001 41.800000000000004 91.38000000000002 42.59 92.36800000000002 43.183 C 93.35600000000002 43.775999999999996 94.54100000000003 44.072 95.72700000000002 44.27 C 96.91200000000002 44.369 98.09800000000001 44.27 99.18500000000002 43.974000000000004 C 100.86400000000002 43.480000000000004 102.34600000000002 42.591 103.43300000000002 41.208000000000006 C 104.61800000000002 39.726000000000006 105.31000000000002 37.94800000000001 105.60600000000002 36.17 L 101.55600000000003 37.355000000000004 C 101.16100000000003 38.93600000000001 100.17300000000003 40.121 98.29600000000002 40.714000000000006 C 96.02400000000002 41.406000000000006 93.35700000000003 40.61500000000001 92.36900000000003 38.047000000000004 L 105.50800000000002 34.194 Z M 91.578 34.984 C 91.282 33.403 92.27 30.835 95.134 29.946 C 97.998 29.057000000000002 100.271 30.736 100.864 32.317 L 91.578 34.984 Z M 105.409 44.073 L 110.34800000000001 44.073 L 114.20100000000001 38.244 L 118.054 44.073 L 122.993 44.073 L 116.66999999999999 35.083 L 122.39999999999999 27.080999999999996 L 117.559 27.080999999999996 L 114.2 32.31699999999999 L 110.84100000000001 27.080999999999992 L 105.90200000000002 27.080999999999992 L 111.63200000000002 35.08299999999999 L 105.40800000000002 44.07299999999999 Z M 48.605 35.379 C 48.605 39.726 45.443999999999996 44.369 39.516 44.369 C 37.738 44.369 36.058 43.875 34.477999999999994 42.986 L 34.477999999999994 50 L 30.427999999999994 50 L 30.427999999999994 35.379 C 30.427999999999994 31.031999999999996 33.58899999999999 26.388999999999996 39.516999999999996 26.388999999999996 C 45.445 26.388999999999996 48.605999999999995 31.031999999999996 48.605999999999995 35.379 Z M 44.555 35.379 C 44.555 32.415 42.283 30.142999999999997 39.516999999999996 30.142999999999997 C 36.75099999999999 30.142999999999997 34.577999999999996 32.217999999999996 34.479 35.081999999999994 L 34.479 35.971 C 34.577999999999996 37.254999999999995 35.171 38.342 36.06 39.230999999999995 C 36.949000000000005 40.11999999999999 38.233000000000004 40.51499999999999 39.419000000000004 40.51499999999999 C 42.284000000000006 40.61399999999999 44.556000000000004 38.34199999999999 44.556000000000004 35.37799999999999 M 55.125 20.956 L 51.371 20.956 L 51.371 43.875 L 55.421 43.875 L 55.421 20.956 L 55.125 20.956 Z M 22.524 26.883 L 26.574 26.883 L 26.574 43.875 L 22.524 43.875 L 22.524 26.883 Z M 24.5 24.413 C 24.994 24.413 25.389 24.314 25.784 24.018 C 26.179 23.722 26.476 23.425 26.573999999999998 23.03 C 26.772 22.635 26.772 22.141000000000002 26.673 21.746000000000002 C 26.573999999999998 21.351000000000003 26.377 20.956000000000003 26.08 20.561000000000003 C 25.784 20.265000000000004 25.387999999999998 20.067000000000004 24.895 19.968000000000004 C 24.5 19.869000000000003 24.006 19.968000000000004 23.611 20.067000000000004 C 23.216 20.265000000000004 22.821 20.561000000000003 22.623 20.857000000000003 C 22.327 21.252000000000002 22.228 21.647000000000002 22.228 22.141000000000002 C 22.228 22.734 22.426000000000002 23.326 22.92 23.722 C 23.315 24.216 23.908 24.414 24.501 24.414 Z M 13.337 35.28 C 13.436 32.316 15.708 30.242 18.474 30.242 C 18.77 30.242 19.166 30.242 19.462 30.341 L 19.462 26.488 C 19.166 26.488 18.77 26.389 18.474 26.389 C 12.448 26.389 9.287 31.032 9.287 35.478 L 9.287 43.875 L 13.436 43.875 L 13.337 35.28 Z M 8.298 26.192 L 4.05 26.192 L 4.05 20.956 L 0 20.956 L 0 43.875 L 4.05 43.875 L 4.05 30.341 L 8.298 30.341 L 8.298 26.192 Z M 87.133 26.192 L 82.88499999999999 26.192 L 82.88499999999999 20.956 L 78.835 20.956 L 78.835 43.875 L 82.88499999999999 43.875 L 82.88499999999999 30.341 L 87.133 30.341 L 87.133 26.192 Z" stroke-linecap="round" />
</g>
<g transform="matrix(0.84 0 0 0.84 126.83 14.84)"  >
<path style="stroke: none; stroke-width: 1; stroke-dasharray: none; stroke-linecap: butt; stroke-dashoffset: 0; stroke-linejoin: miter; stroke-miterlimit: 4; fill: rgb(88,179,205); fill-rule: nonzero; opacity: 1;" vector-effect="non-scaling-stroke"  transform=" translate(-142.21, -16.24)" d="M 142.554 16.708 L 142.554 15.818999999999999 L 147.987 15.818999999999999 C 147.887286039404 14.437831950926254 147.290859674906 13.139476761980328 146.308 12.164 C 145.41899999999998 11.275 144.135 10.682 142.85 10.485 C 141.566 10.386 140.183 10.683 139.096 11.373999999999999 C 138.00900000000001 12.064999999999998 137.12 13.152 136.725 14.338 C 136.32999999999998 15.524 136.32999999999998 16.907 136.725 18.191 C 137.219 19.375999999999998 138.009 20.462999999999997 139.195 21.154999999999998 C 140.28199999999998 21.846999999999998 141.665 22.142999999999997 142.94899999999998 21.944999999999997 C 144.23299999999998 21.746999999999996 145.41899999999998 21.154999999999998 146.308 20.166999999999998 C 147.197 19.179 147.79 17.994 147.88899999999998 16.708999999999996 L 142.55399999999997 16.708999999999996 Z" stroke-linecap="round" />
</g>
<g transform="matrix(0.84 0 0 0.84 118.23 23.41)"  >
<path style="stroke: none; stroke-width: 1; stroke-dasharray: none; stroke-linecap: butt; stroke-dashoffset: 0; stroke-linejoin: miter; stroke-miterlimit: 4; fill: rgb(26,185,109); fill-rule: nonzero; opacity: 1;" vector-effect="non-scaling-stroke"  transform=" translate(-131.96, -26.44)" d="M 131.489 26.784 L 132.37800000000001 26.784 L 132.37800000000001 32.217 C 133.75916804907376 32.117286039403986 135.05752323801968 31.52085967490598 136.03300000000002 30.538 C 136.92200000000003 29.649 137.51500000000001 28.365000000000002 137.71200000000002 27.08 C 137.811 25.796 137.514 24.412999999999997 136.823 23.325999999999997 C 136.131 22.238999999999997 135.04500000000002 21.349999999999998 133.859 20.955 C 132.60503842558285 20.559993861475565 131.25996157441716 20.559993861475565 130.006 20.955 C 128.821 21.448999999999998 127.734 22.238999999999997 127.042 23.424999999999997 C 126.35000000000001 24.511999999999997 126.054 25.894999999999996 126.252 27.179 C 126.44999999999999 28.463 127.042 29.648999999999997 128.03 30.537999999999997 C 129.018 31.426999999999996 130.203 32.019999999999996 131.488 32.119 L 131.488 26.784 Z" stroke-linecap="round" />
</g>
<g transform="matrix(0.84 0 0 0.84 118.2 6.07)"  >
<path style="stroke: none; stroke-width: 1; stroke-dasharray: none; stroke-linecap: butt; stroke-dashoffset: 0; stroke-linejoin: miter; stroke-miterlimit: 4; fill: rgb(1,10,89); fill-rule: nonzero; opacity: 1;" vector-effect="non-scaling-stroke"  transform=" translate(-131.93, -5.78)" d="M 132.378 5.94 L 131.68599999999998 5.248 L 135.539 1.395 C 134.452 0.40700000000000003 132.97 -0.08699999999999997 131.48899999999998 0.01200000000000001 C 130.01076873820466 0.11774991086006036 128.63045197265143 0.7901751818030736 127.63599999999998 1.8889999999999993 C 126.64799999999998 2.976 126.05499999999998 4.458 126.15399999999998 5.939 C 126.25299999999999 7.42 126.74699999999999 8.804 127.83299999999998 9.891 C 128.92 10.978 130.303 11.57 131.785 11.57 C 133.267 11.57 134.749 11.076 135.835 10.088000000000001 C 136.92100000000002 9.100000000000001 137.613 7.7170000000000005 137.71200000000002 6.235000000000001 C 137.811 4.753000000000001 137.317 3.2710000000000012 136.329 2.1850000000000014 L 132.377 5.939000000000002 Z" stroke-linecap="round" />
</g>
<g transform="matrix(1 0 0 1 181.94 30.98)" style=""  >
		<text xml:space="preserve" font-family="Lato" font-size="22" font-style="normal" font-weight="700" style="stroke: none; stroke-width: 1; stroke-dasharray: none; stroke-linecap: butt; stroke-dashoffset: 0; stroke-linejoin: miter; stroke-miterlimit: 4; fill: rgb(0,0,0); fill-rule: nonzero; opacity: 1; white-space: pre;" ><tspan x="-47.97" y="6.91" >Data Sync</tspan></text>
</g>
</svg>

<svg xmlns="http://www.w3.org/2000/svg" viewBox="0 0 500 45" width="inherit" height="inherit">
    <title>Tripletex logo</title>
	
	<g transform="matrix(1 0 0 0.9 1 0)">
		<path fill="#0f131a" d="M76.167 34.194c-.494-2.964-1.976-5.335-4.544-6.816-.988-.593-2.173-.889-3.359-1.087-1.185-.099-2.371 0-3.458.296-4.939 1.383-7.409 6.619-6.026 11.163.296 1.087.889 2.173 1.581 3.161.692.889 1.679 1.679 2.667 2.272.988.593 2.173.889 3.359 1.087 1.185.099 2.371 0 3.458-.296 1.679-.494 3.161-1.383 4.248-2.766 1.185-1.482 1.877-3.26 2.173-5.038l-4.05 1.185c-.395 1.581-1.383 2.766-3.26 3.359-2.272.692-4.939-.099-5.927-2.667l13.139-3.853Zm-13.929.79c-.296-1.581.692-4.149 3.556-5.038 2.865-.889 5.137.79 5.73 2.371l-9.286 2.667ZM105.507 34.194c-.494-2.964-1.976-5.335-4.544-6.816-.988-.593-2.173-.889-3.359-1.087-1.185-.099-2.371 0-3.458.296-4.939 1.383-7.409 6.619-6.026 11.163.296 1.185.889 2.173 1.581 3.161.692.889 1.679 1.679 2.667 2.272s2.173.889 3.359 1.087c1.185.099 2.371 0 3.458-.296 1.679-.494 3.161-1.383 4.248-2.766 1.185-1.482 1.877-3.26 2.173-5.038l-4.05 1.185c-.395 1.581-1.383 2.766-3.26 3.359-2.272.692-4.939-.099-5.927-2.667l13.139-3.853Zm-13.929.79c-.296-1.581.692-4.149 3.556-5.038s5.137.79 5.73 2.371l-9.286 2.667ZM105.409 44.073h4.939l3.853-5.829 3.853 5.829h4.939l-6.323-8.99 5.73-8.002h-4.841l-3.359 5.236-3.359-5.236h-4.939l5.73 8.002-6.224 8.99ZM48.605 35.379c0 4.347-3.161 8.99-9.089 8.99-1.778 0-3.458-.494-5.038-1.383V50h-4.05V35.379c0-4.347 3.161-8.99 9.089-8.99s9.089 4.643 9.089 8.99Zm-4.05 0c0-2.964-2.272-5.236-5.038-5.236s-4.939 2.075-5.038 4.939v.889c.099 1.284.692 2.371 1.581 3.26s2.173 1.284 3.359 1.284c2.865.099 5.137-2.173 5.137-5.137M55.125 20.956h-3.754v22.919h4.05V20.956h-.296ZM22.524 26.883h4.05v16.992h-4.05V26.883Zm1.976-2.47c.494 0 .889-.099 1.284-.395s.692-.593.79-.988c.198-.395.198-.889.099-1.284s-.296-.79-.593-1.185c-.296-.296-.692-.494-1.185-.593-.395-.099-.889 0-1.284.099-.395.198-.79.494-.988.79-.296.395-.395.79-.395 1.284 0 .593.198 1.185.692 1.581.395.494.988.692 1.581.692ZM13.337 35.28c.099-2.964 2.371-5.038 5.137-5.038.296 0 .692 0 .988.099v-3.853c-.296 0-.692-.099-.988-.099-6.026 0-9.187 4.643-9.187 9.089v8.397h4.149l-.099-8.595ZM8.298 26.192H4.05v-5.236H0v22.919h4.05V30.341h4.248v-4.149ZM87.133 26.192h-4.248v-5.236h-4.05v22.919h4.05V30.341h4.248v-4.149Z"/>
		<path fill="#58b3cd" d="M142.554 16.708v-.889h5.433a5.731 5.731 0 0 0-1.679-3.655c-.889-.889-2.173-1.482-3.458-1.679-1.284-.099-2.667.198-3.754.889s-1.976 1.778-2.371 2.964-.395 2.569 0 3.853c.494 1.185 1.284 2.272 2.47 2.964 1.087.692 2.47.988 3.754.79s2.47-.79 3.359-1.778 1.482-2.173 1.581-3.458h-5.335Z"/>
		<path fill="#1ab96d" d="M131.489 26.784h.889v5.433a5.731 5.731 0 0 0 3.655-1.679c.889-.889 1.482-2.173 1.679-3.458.099-1.284-.198-2.667-.889-3.754-.692-1.087-1.778-1.976-2.964-2.371a6.412 6.412 0 0 0-3.853 0c-1.185.494-2.272 1.284-2.964 2.47-.692 1.087-.988 2.47-.79 3.754s.79 2.47 1.778 3.359 2.173 1.482 3.458 1.581v-5.335Z"/>
		<path fill="#010a59" d="m132.378 5.94-.692-.692 3.853-3.853c-1.087-.988-2.569-1.482-4.05-1.383a5.75 5.75 0 0 0-3.853 1.877c-.988 1.087-1.581 2.569-1.482 4.05s.593 2.865 1.679 3.952c1.087 1.087 2.47 1.679 3.952 1.679s2.964-.494 4.05-1.482 1.778-2.371 1.877-3.853c.099-1.482-.395-2.964-1.383-4.05l-3.952 3.754Z"/>
	</g>
	
	<g transform="matrix(1 0 0 1 -45 10)" fill="#0f131a" >
		<text x="200" y="29" font-weight="700" font-family="Barlow, sans-serif">
			Data Sync
		</text>
	</g>
</svg>
